svg/fluentui-system-icons/ic_fluent_arrow_forward_down_person_24_filled.svg

<svg width="24" height="24" viewBox="0 0 24 24" fill="none" xmlns="http://www.w3.org/2000/svg">
<path d="M16.2958 5.70553C15.9055 5.31474 15.906 4.68158 16.2968 4.29132C16.6876 3.90106 17.3207 3.9015 17.711 4.29229L22.7076 9.29573C23.0976 9.68631 23.0974 10.319 22.7072 10.7094L17.7106 15.707C17.3201 16.0976 16.6869 16.0977 16.2964 15.7072C15.9058 15.3167 15.9057 14.6835 16.2962 14.293L19.589 11L13 11C8.66508 11 5.13546 7.55216 5.00381 3.24918L5 3C5 2.44772 5.44772 2 6 2C6.55228 2 7 2.44772 7 3C7 6.2384 9.56557 8.87757 12.7751 8.99586L13 9L19.586 9L16.2958 5.70553ZM9 13.5C9 14.8807 7.88071 16 6.5 16C5.11929 16 4 14.8807 4 13.5C4 12.1193 5.11929 11 6.5 11C7.88071 11 9 12.1193 9 13.5ZM11 18.875C11 20.4315 9.71429 22 6.5 22C3.28571 22 2 20.4374 2 18.875V18.772C2 17.7929 2.79368 17 3.77273 17H9.22727C10.2063 17 11 17.793 11 18.772V18.875Z" fill="#212121"/>
</svg>

<svg xmlns="http://www.w3.org/2000/svg" width="24" height="24"><path d="M16.296 5.706a1 1 0 1 1 1.415-1.414l4.997 5.004a1 1 0 0 1 0 1.413l-4.997 4.998a1 1 0 1 1-1.415-1.414L19.59 11H13a8 8 0 0 1-7.996-7.75L5 3a1 1 0 0 1 2 0 6 6 0 0 0 5.775 5.996L13 9h6.586l-3.29-3.294ZM9 13.5a2.5 2.5 0 1 1-5 0 2.5 2.5 0 0 1 5 0Zm2 5.375C11 20.431 9.714 22 6.5 22S2 20.437 2 18.875v-.103C2 17.792 2.794 17 3.773 17h5.454c.98 0 1.773.793 1.773 1.772v.103Z"/></svg>
